assets/Other/games-filter-icon.svg

<svg xmlns="http://www.w3.org/2000/svg" width="19" height="20" viewBox="0 0 19 20"><title>games-filter-icon</title><path fill="#fff" fill-rule="nonzero" d="M0 0v4.5l6.6 7v5.4l5.3 3.1v-8.4l6.6-7V0zm10.4 11v6.3L8.2 16v-5L2.3 4.7h13.9zm6.5-7.9H1.6V1.6h15.3z"/></svg>

<?xml version="1.0" encoding="UTF-8"?>
<svg width="19px" height="20px" viewBox="0 0 19 20" version="1.1" xmlns="http://www.w3.org/2000/svg" xmlns:xlink="http://www.w3.org/1999/xlink">
    <title>games-filter-icon</title>
    <g id="icon-set最新整理" stroke="none" stroke-width="1" fill="none" fill-rule="evenodd">
        <g id="images/h5/icon-set/index-theme-icon" transform="translate(-38.000000, -272.000000)" fill="#FFFFFF" fill-rule="nonzero">
            <g id="games-filter-icon" transform="translate(38.000000, 272.000000)">
                <path d="M0,0 L0,4.5 L6.6,11.5 L6.6,16.9 L11.9,20 L11.9,11.6 L18.5,4.6 L18.5,0 L0,0 Z M10.4,11 L10.4,17.3 L8.2,16 L8.2,11 L2.3,4.7 L16.2,4.7 L10.4,11 Z M16.9,3.1 L1.6,3.1 L1.6,1.6 L16.9,1.6 L16.9,3.1 L16.9,3.1 Z" id="形状"></path>
            </g>
        </g>
    </g>
</svg>
